ru/_assets/tracker/svg/new-window.svg

<svg xmlns="http://www.w3.org/2000/svg" width="15" height="15" fill="currentColor" aria-hidden="true" class="g-icon">
    <svg xmlns="http://www.w3.org/2000/svg" viewBox="0 0 512 512">
        <path d="M497.6 0 334.4.17a14.4 14.4 0 0 0-14.4 14.4v33.31a14.4 14.4 0 0 0 14.69 14.4l73.63-2.72 2.06 2.06-278.86 278.87a12 12 0 0 0 0 17l23 23a12 12 0 0 0 17 0l278.86-278.87 2.06 2.06-2.72 73.63a14.4 14.4 0 0 0 14.4 14.69h33.31a14.4 14.4 0 0 0 14.4-14.4L512 14.4A14.4 14.4 0 0 0 497.6 0ZM432 288h-16a16 16 0 0 0-16 16v154a6 6 0 0 1-6 6H54a6 6 0 0 1-6-6V118a6 6 0 0 1 6-6h154a16 16 0 0 0 16-16V80a16 16 0 0 0-16-16H48a48 48 0 0 0-48 48v352a48 48 0 0 0 48 48h352a48 48 0 0 0 48-48V304a16 16 0 0 0-16-16Z"/>
    </svg>
</svg>

<svg xmlns="http://www.w3.org/2000/svg" xmlns:xlink="http://www.w3.org/1999/xlink" width="15" height="15" class="g-icon" fill="currentColor" stroke="none" aria-hidden="true">
    <svg xmlns="http://www.w3.org/2000/svg" viewBox="0 0 512 512">
        <path d="M497.6,0,334.4.17A14.4,14.4,0,0,0,320,14.57V47.88a14.4,14.4,0,0,0,14.69,14.4l73.63-2.72,2.06,2.06L131.52,340.49a12,12,0,0,0,0,17l23,23a12,12,0,0,0,17,0L450.38,101.62l2.06,2.06-2.72,73.63A14.4,14.4,0,0,0,464.12,192h33.31a14.4,14.4,0,0,0,14.4-14.4L512,14.4A14.4,14.4,0,0,0,497.6,0ZM432,288H416a16,16,0,0,0-16,16V458a6,6,0,0,1-6,6H54a6,6,0,0,1-6-6V118a6,6,0,0,1,6-6H208a16,16,0,0,0,16-16V80a16,16,0,0,0-16-16H48A48,48,0,0,0,0,112V464a48,48,0,0,0,48,48H400a48,48,0,0,0,48-48V304A16,16,0,0,0,432,288Z">
        </path>
    </svg>
</svg>
